src/assets/svgs/quote2-svgrepo-com.svg

<!DOCTYPE svg PUBLIC "-//W3C//DTD SVG 1.1//EN" "http://www.w3.org/Graphics/SVG/1.1/DTD/svg11.dtd">
<!-- Uploaded to: SVG Repo, www.svgrepo.com, Transformed by: SVG Repo Mixer Tools -->
<svg fill="#F51414" width="90px" height="90px" viewBox="0 -5 34 34" xmlns="http://www.w3.org/2000/svg" stroke="#F51414">
<g id="SVGRepo_bgCarrier" stroke-width="0"/>
<g id="SVGRepo_tracerCarrier" stroke-linecap="round" stroke-linejoin="round"/>
<g id="SVGRepo_iconCarrier">
<path d="m31.2 0h-7.2l-4.8 9.6v14.4h14.4v-14.4h-7.2zm-19.2 0h-7.2l-4.8 9.6v14.4h14.4v-14.4h-7.2z"/>
</g>
</svg>

<svg xmlns="http://www.w3.org/2000/svg" width="90" height="90" fill="#F51414" stroke="#F51414" viewBox="0 -5 34 34"><path d="M31.2 0H24l-4.8 9.6V24h14.4V9.6h-7.2zM12 0H4.8L0 9.6V24h14.4V9.6H7.2z"/></svg>
